X:1
T:Title
%%score { ( 1 3 ) | ( 2 4 ) }
L:1/8
Q:1/4=100
M:4/4
K:C
V:1 treble nm="Grand Piano"
V:3 treble 
V:2 bass 
V:4 bass 
V:1
 [CEc]>c [CEB]>B [EA]2 [CEG]2 | z4 [CEG]4 | [CEc]>c [CEB]>B [EA]2 [CEG]2 | z4 [B,FA]4[K:bass] | %4
w: Adam~Geibel * * * * *||||
 [FB]>_B [F=B]>c [Fd]2 [FG]2 | z4 [Ee]4 | [DGB]2 [DGB]2 [D^Fd]2 [A,CDFA]2 | [FGBd]6 z2 | %8
w: ||||
 [Ee]2 [Ed]2 [Ec]2 [EB]2 | [EA]>^G [EA]>B [FA]2 [B,F=G]2 | [Ff]2 [Fe]2 [Fd]2 [Fc]2 | %11
w: |||
 [FB]>_B [F=B]>d [EA]2 [CEG]2 | [EGc]2 [EGc]2 [CFc]2 [FAc]2 | [G_Bc]>c [EBc]>c [FAd]2 [FAc]2 | %14
w: |||
 [C_Ec]2 [CEA]2 [C=Ec]2 [CEG]2 |[M:9/8] [D^FA]>B[Fc]- [Fc]/e/ d2 [EGc]3 |] %16
w: ||
V:2
 [C,G,]2 [G,,G,]2 [C,G,C]2 [G,,G,]2 | z z/ G/ z z/ G/ C,2 G,,2 | %2
 [C,G,]2 [G,,G,]2 [C,G,C]2 [G,,G,]2 | [D,G,]2 [G,,G,]2 [D,G,]2 z2 | %4
 [D,G,]2 [G,,G,]2 [B,,G,]2 [G,,G,]2 | [C,G,]2 [G,,G,]2 [C,G,]2 G,,2 | %6
 z z/[K:treble] _B/ z z/ c/[K:bass] D,,2 D,2 | G,>G,, B,,>D, G,2 G,,2 | %8
 [C,G,]2 [G,,G,]2 [C,G,]2 [G,,G,]2 | [C,G,]2 [G,,G,]2 [D,G,B,]2 [G,,G,]2 | %10
 [B,,G,]2 [G,,G,]2 [B,,G,]2 [G,,G,]2 | [D,G,]2 [G,,G,]2 [C,G,C]2 [G,,G,]2 | %12
 [C,C]2 [_B,,_B,]2 [A,,A,]2 [F,,F,]2 | [E,,E,]2 [C,,C,]2 [F,,F,]2 [C,F,A,]2 | %14
 [^F,,^F,]2 [F,,F,]2 [G,,G,]2 [G,,G,]2 |[M:9/8] [D,A,C]2 [D,A,C]- [D,A,C] [G,B,FG]2 [C,G,C]3 |] %16
V:3
 x8 | [CE]2 [G,CEG]2 G,2 G,2 | x8 | [B,F]>A [B,FA]>A z2[K:bass] [G,,G,]2 | x8 | %5
 [Ec]>B [Ec]>d z2 G,2 | x8 | x8 | x8 | x8 | x8 | x8 | x8 | x8 | x8 |[M:9/8] x9 |] %16
V:4
 x8 | [C,G,]2 G,,2 z4 | x8 | x8 | x8 | x8 | D,,2[K:treble] [D,G,B,]2[K:bass] z4 | x8 | x8 | x8 | %10
 x8 | x8 | x8 | x8 | x8 |[M:9/8] x9 |] %16

